packages/icons/svg/24/BringBackward.svg

<svg width="24" height="24" viewBox="0 0 24 24" fill="none" xmlns="http://www.w3.org/2000/svg">
<path d="M16.0001 19L12.0001 23L8.00006 19H11.0001V16C11.0001 15.4477 11.4478 15 12.0001 15C12.5523 15 13.0001 15.4477 13.0001 16V19H16.0001Z" fill="#858585"/>
<path d="M9.00004 14.1815L5.06122 11.7727C4.79042 11.6071 4.44968 11.6071 4.17891 11.7728C3.63991 12.1025 3.63991 12.8854 4.1789 13.2152L9.00004 16.1647V14.1815Z" fill="#858585"/>
<path d="M15 16.1647L19.814 13.2196C20.3565 12.8877 20.3568 12.0998 19.8145 11.7674C19.5417 11.6003 19.1983 11.6001 18.9253 11.7671L15 14.1685V16.1647Z" fill="#858585"/>
<path fill-rule="evenodd" clip-rule="evenodd" d="M12.5219 13.6928C12.2016 13.8888 11.7985 13.8888 11.4782 13.6928L4.39437 9.35907C3.75686 8.96905 3.75686 8.04303 4.39437 7.65301L11.4782 3.31927C11.7985 3.12331 12.2016 3.12331 12.5219 3.31927L19.6057 7.65301C20.2432 8.04303 20.2432 8.96905 19.6057 9.35906L12.5219 13.6928ZM12.5224 5.31C12.2018 5.11365 11.7983 5.11365 11.4777 5.31L6.26004 8.50604L11.4777 11.7021C11.7982 11.8984 12.2018 11.8984 12.5224 11.7021L17.74 8.50604L12.5224 5.31Z" fill="#858585"/>
</svg>

<svg width="24" height="24" fill="none" xmlns="http://www.w3.org/2000/svg" viewBox="0 0 24 24"><path d="M16 19l-4 4-4-4h3v-3a1 1 0 112 0v3h3zM9 14.181l-3.939-2.408a.845.845 0 00-.882 1.442L9 16.165v-1.983zM15 16.165l4.814-2.945a.851.851 0 00-.889-1.453L15 14.17v1.996z" fill="currentColor"></path><path fill-rule="evenodd" clip-rule="evenodd" d="M12.522 13.693a1 1 0 01-1.044 0L4.394 9.359a1 1 0 010-1.706l7.084-4.334a1 1 0 011.044 0l7.084 4.334a1 1 0 010 1.706l-7.084 4.334zm0-8.383a1 1 0 00-1.044 0L6.26 8.506l5.218 3.196a1 1 0 001.044 0l5.218-3.196-5.218-3.196z" fill="currentColor"></path></svg>
